icons/logo-booking.svg

<svg width="24" height="24" viewBox="0 0 24 24" fill="none" xmlns="http://www.w3.org/2000/svg">
<path d="M16 16H16.01" stroke="#1E293B" stroke-width="2" stroke-linecap="round" stroke-linejoin="round"/>
<path d="M8.5 4C6.01472 4 4 6.01472 4 8.5V20H15.5C17.9853 20 20 17.9853 20 15.5V8.5C20 6.01472 17.9853 4 15.5 4H8.5Z" stroke="#1E293B" stroke-width="2" stroke-linecap="round" stroke-linejoin="round"/>
<path d="M10 12C11.1046 12 12 11.1046 12 10C12 8.89543 11.1046 8 10 8H8V12M8 12V16H11C12.1046 16 13 15.1046 13 14C13 12.8954 12.1046 12 11 12H8Z" stroke="#1E293B" stroke-width="2" stroke-linecap="round" stroke-linejoin="round"/>
</svg>

<svg
  width="24"
  height="24"
  viewBox="0 0 24 24"
  xmlns="http://www.w3.org/2000/svg"
  fill="none"
  stroke="currentColor"
  stroke-width="2"
  stroke-linecap="round"
  stroke-linejoin="round"
>
  <path d="M16 16h.01" />
  <path d="M8.5 4A4.5 4.5 0 0 0 4 8.5V20h11.5a4.5 4.5 0 0 0 4.5-4.5v-7A4.5 4.5 0 0 0 15.5 4h-7z" />
  <path d="M10 12a2 2 0 1 0 0-4H8v4m0 0v4h3a2 2 0 1 0 0-4H8z" />
</svg>
